Obsidian/actions/24s/exchange-positions.svg

<svg height="24" viewBox="0 0 24 24" width="24" xmlns="http://www.w3.org/2000/svg"><path d="m0 0v7h8v-7zm9 1.078125v3.921875h1v-2.6445312c2.393.8460499 3.9948 3.1064312 4 5.6445312h1c-.003-3.4773-2.5584-6.425075-6-6.921875zm-8 6.921875c.003 3.4773 2.5584 6.425075 6 6.921875v-3.921875h-1v2.644531c-2.393-.84605-3.9948-3.106431-4-5.644531zm7 1v7h8v-7z" fill="#bebebe" transform="translate(4 4)"/></svg>

<svg xmlns="http://www.w3.org/2000/svg" width="24" height="24" viewBox="0 0 24 24">
 <defs>
  <style id="current-color-scheme" type="text/css">
   .ColorScheme-Text { color:#bebebe; } .ColorScheme-Highlight { color:#4285f4; }
  </style>
 </defs>
 <path style="fill:currentColor" class="ColorScheme-Text" d="M 0 0 L 0 7 L 8 7 L 8 0 L 0 0 z M 9 1.078125 L 9 5 L 10 5 L 10 2.3554688 C 12.393 3.2015187 13.9948 5.4619 14 8 L 15 8 C 14.997 4.5227 12.4416 1.574925 9 1.078125 z M 1 8 C 1.003 11.4773 3.5584 14.425075 7 14.921875 L 7 11 L 6 11 L 6 13.644531 C 3.607 12.798481 2.0052 10.5381 2 8 L 1 8 z M 8 9 L 8 16 L 16 16 L 16 9 L 8 9 z" transform="translate(4 4)"/>
</svg>
